X:92
T: Verschlafener Jaeger
N: Q0152I
O: Mitteleuropa, Deutschland (BRD) , Nordrhein - Westfalen, Solingen,
R: Ballade, Verfuehrung, Versagen, Spott
M: 6/8
L: 1/16
K: G
D2 | G3AB2A2B2A2 | G4E2D4
D2 | G3AB2A2B2A2 | G4E2D6
B6c6 | d2B2G2A2G2A2 | G3AB2A2B2d2
B6c6 | d2B2G2A2G2A2 | G6-G4

